X: 1
T:The cat in the corner
C:anon., arr.: Frank Nordberg
O:Ireland
V:1 up
V:2 merge down
R:Double jig
B:O'Neills's 1001
Z:(C) 1999 Arranged by Frank Nordberg - http://www.musicaviva.com
M:6/8
L:1/8
K:D -8va
V:1
"^(6)=D"A/G/|F2D DFA|dAF AFE|EGE CEC|EGE CEG|
V:2
x|D,6|D,6|A,6|A,6|
V:1
F2D DFA|dAF AFE|BGB EFG|AFD D2::a/g/|
V:2
D,6|D,6|G,3A,3|D,3-D,2::z|
V:1
f2d dfa|afd dfa|e2c ceg|gec efg|
V:2
D,6|D,6|A,6|A,6|
V:1
faf edc|dcB AFA|(B/c/d)B ABG|FDD D2:|
V:2
D,3A,3|D,3A,3|G,3A,3|D,3-D,2:|
